site/assets/images/social-github-icon-only.svg

<svg width="32px" height="32px" viewBox="0 0 32 32" version="1.1" xmlns="http://www.w3.org/2000/svg" xmlns:xlink="http://www.w3.org/1999/xlink" xmlns:sketch="http://www.bohemiancoding.com/sketch/ns">
    <defs>
        <path id="path-1" d="M10.6107064,31.1825823 C11.3869833,31.3299202 11.6698719,30.8358472 11.6698719,30.4115141 C11.6698719,30.0313826 11.6565372,29.0255561 11.6489173,27.6906753 C7.33319814,28.6572115 6.42262059,25.5454362 6.42262059,25.5454362 C5.71682759,23.6968373 4.69957136,23.204729 4.69957136,23.204729 C3.29084293,22.2116717 4.80624992,22.2322991 4.80624992,22.2322991 C6.36356631,22.3452581 7.18270516,23.8815008 7.18270516,23.8815008 C8.5676214,26.3263267 10.8145386,25.6200873 11.6984466,25.2104881 C11.8394147,24.1761764 12.2404117,23.4719015 12.6833183,23.0711425 C9.23817241,22.6674369 5.61586394,21.2952303 5.61586394,15.1640114 C5.61586394,13.4165846 6.2206932,11.9883897 7.21318478,10.8696042 C7.05411946,10.4649162 6.52167915,8.8383064 7.36558273,6.63609662 C7.36558273,6.63609662 8.6685851,6.204888 11.6317725,8.27547585 C12.8700056,7.92088276 14.1968203,7.743095 15.5160148,7.73720151 C16.8342571,7.743095 18.1610715,7.92088276 19.4012097,8.27547585 C22.3624921,6.204888 23.6635895,6.63609662 23.6635895,6.63609662 C24.509398,8.8383064 23.9769577,10.4649162 23.8178924,10.8696042 C24.812289,11.9883897 25.4123559,13.4165846 25.4123559,15.1640114 C25.4123559,21.3099642 21.7852849,22.6625256 18.3287092,23.0593556 C18.8859143,23.5534284 19.3812076,24.5297873 19.3812076,26.0218286 C19.3812076,28.1611742 19.3631102,29.8869914 19.3631102,30.4115141 C19.3631102,30.8397762 19.6421891,31.3367959 20.4298958,31.1806178 C26.5896299,29.0609172 31.0310773,23.0681958 31.0310773,16.0008904 C31.0310773,7.16356623 24.0836363,-3.55271368e-15 15.5141099,-3.55271368e-15 C6.94744087,-3.55271368e-15 0,7.16356623 0,16.0008904 C0,23.069178 4.44525731,29.0668107 10.6107064,31.1825823 Z"></path>
    </defs>
    <g id="Page-1" stroke="none" stroke-width="1" fill="none" fill-rule="evenodd" sketch:type="MSPage">
        <g id="social-github-icon-only" sketch:type="MSLayerGroup">
            <g id="Imported-Layers">
                <use fill="#0577DA" fill-rule="evenodd" sketch:type="MSShapeGroup" xlink:href="#path-1"></use>
                <use fill="none" xlink:href="#path-1"></use>
            </g>
        </g>
    </g>
</svg>

<svg width="32" height="32" xmlns="http://www.w3.org/2000/svg" xmlns:xlink="http://www.w3.org/1999/xlink"><defs><path id="a" d="M10.61 31.183c.777.147 1.06-.347 1.06-.77 0-.382-.013-1.387-.02-2.722-4.317.967-5.227-2.145-5.227-2.145-.706-1.848-1.723-2.34-1.723-2.34-1.41-.993.106-.973.106-.973 1.558.113 2.377 1.65 2.377 1.65 1.385 2.444 3.632 1.738 4.515 1.328.14-1.034.542-1.738.985-2.14-3.445-.403-7.067-1.775-7.067-7.906 0-1.747.605-3.176 1.597-4.294-.16-.405-.69-2.032.153-4.234 0 0 1.303-.43 4.266 1.64 1.238-.355 2.565-.533 3.884-.54 1.318.007 2.645.185 3.885.54 2.962-2.07 4.264-1.64 4.264-1.64.845 2.202.313 3.83.154 4.234.994 1.118 1.594 2.547 1.594 4.294 0 6.146-3.627 7.5-7.083 7.895.556.493 1.05 1.47 1.05 2.962 0 2.14-.017 3.865-.017 4.39 0 .428.28.925 1.067.77 6.16-2.12 10.6-8.114 10.6-15.18C31.03 7.163 24.085 0 15.515 0 6.947 0 0 7.164 0 16c0 7.07 4.445 13.067 10.61 15.183z"/></defs><g fill="none" fill-rule="evenodd"><use fill="#0577DA" xlink:href="#a"/><use xlink:href="#a"/></g></svg>
